X: 4083
T: MOVING BOG
R: Reel.
%R: reel
B: James Kerr "Merry Melodies" v.4 p.11 #83
Z: 2016 John Chambers <jc:trillian.mit.edu>
M: C
L: 1/8
K: D
uA,2 |\
D2FA (dA)FA | d2fd (gf)ec |\
d2cA B2AF |[1 G2BG (FG)EF :|[2 GBAF D2 |]
|: (fg) |\
a2(fd) dfdf | b2(ge) gbgb |\
[1 a2(fd) dfdf | geaf d2 :|\
[2 afge fdAF | GBAF D2 |]

%%sep 1 1 500
%%sep 1 1 500

